assets/img/embedit-logo.svg

<svg viewBox="0 0 144 143" version="1.1" xmlns="http://www.w3.org/2000/svg" xmlns:xlink="http://www.w3.org/1999/xlink" preserveAspectRatio="xMinYMax meet">
  <path d="M0.139648438,-0.129882812 L143.958984,-0.129882812 L143.958984,23.5742188 L24.3398438,23.5742188 L24.3398438,60.1806641 L113.669922,60.1806641 L113.669922,83.9980469 L24.3398438,83.9980469 L24.3398438,120.151367 L113.669922,120.151367 L113.669922,143.274414 L0.139648438,143.274414 L0.139648438,-0.129882812 Z" id="Path-1" fill="#333333"></path>
  <path d="M30.2705078,30.1318359 L143.564453,30.1318359 L143.564453,53.7285156 L30.2705078,53.7285156 L30.2705078,30.1318359 Z" id="Path-2" fill="#333333"></path>
  <path d="M120.447413,60.2846563 L144.214846,60.2846563 L144.214846,142.964885 L120.447413,142.964885 L120.447413,113.619866 L29.9998729,113.619866 L29.9998729,89.6513606 L120.447413,89.6513606 L120.447413,60.2846563 Z" id="Path-3" fill="#333333"></path>
</svg>

<svg viewBox="0 0 144 143" xmlns="http://www.w3.org/2000/svg" preserveAspectRatio="xMinYMax meet"><path d="M.14-.13h143.82v23.704H24.34V60.18h89.33V84H24.34v36.153h89.33v23.124H.14V-.13z" fill="#333"/><path d="M30.27 30.132h113.294V53.73H30.27V30.13z" fill="#333"/><path d="M120.447 60.285h23.768v82.68h-23.768V113.62H30V89.65h90.447V60.286z" fill="#333"/></svg>
